X:6027
T:From Night Till Morn
R:Reel
C:Trad.
O:England
Z:Paul Hardy's Session Tunebook 2022 (see www.paulhardy.net). Creative Commons cc by-nc-sa licenced.
M:4/4
L:1/8
Q:1/4=120
K:G
dc|"G"B3 B B2 G2|"D"AGAB "G"G2 AB|"C"cBAG "G"GABc|"D" d2 "C"ec "G"B2 "D"A2|
"G"B3 B B2 G2|"D"AGAB "G"G2 AB|"C"cBAG "G"GABG|"D"A4 "G"G2:|
|:BA|"G"GABc d2 d2|d2 e2 "D"d4|"C"e2 d2 "G"g2 B2|"D7" d2 ec B2 A2|
"G"B3 B B2 G2|"D"AGAB "G"G2 AB|"C"cBAG "G"GABc|"D7"A4"G"G2:|

